X: 1
T: Lisdoonvarna, The
M: 6/8
L: 1/8
R: jig
K: Dmaj
A| d2 f edc | dAFGFE | DFA DFA | Bcd ecA |
d2 f edc | dAFGFE | DFA DFA |1 Bec d2 :|2 Bec d2 || g |
fdf agf| gfg bag | fdf agf | gfg e2 g |
|1 fdf agf | gfg bag | fga efg | fdd d2 :|2
fga efg | fdB AFA | Bcd efg | faf gfe ||3:|
